Otagle3/Assets/ikonySvG/UstawCzcionke.svg

<?xml version="1.0" encoding="UTF-8" standalone="no"?>
<svg
   xmlns:dc="http://purl.org/dc/elements/1.1/"
   xmlns:cc="http://creativecommons.org/ns#"
   xmlns:rdf="http://www.w3.org/1999/02/22-rdf-syntax-ns#"
   xmlns:svg="http://www.w3.org/2000/svg"
   xmlns="http://www.w3.org/2000/svg"
   id="svg47"
   version="1.1"
   viewBox="0 0 52.758294 52.758296"
   height="199.40143"
   width="199.40143">
  <defs
     id="defs42">
    <pattern
       id="EMFhbasepattern"
       patternUnits="userSpaceOnUse"
       width="6"
       height="6"
       x="0"
       y="0" />
    <marker
       style="overflow:visible"
       id="Arrow1Mend-5-0"
       refX="0"
       refY="0"
       orient="auto">
      <path
         transform="matrix(-0.4,0,0,-0.4,-4,0)"
         style="fill:#000000;fill-opacity:1;fill-rule:evenodd;stroke:#000000;stroke-width:1.00000003pt;stroke-opacity:1"
         d="M 0,0 5,-5 -12.5,0 5,5 Z"
         id="path1146-3-3" />
    </marker>
    <marker
       style="overflow:visible"
       id="Arrow1Mend-5-3"
       refX="0"
       refY="0"
       orient="auto">
      <path
         transform="matrix(-0.4,0,0,-0.4,-4,0)"
         style="fill:#000000;fill-opacity:1;fill-rule:evenodd;stroke:#000000;stroke-width:1.00000003pt;stroke-opacity:1"
         d="M 0,0 5,-5 -12.5,0 5,5 Z"
         id="path1146-3-9" />
    </marker>
    <marker
       orient="auto"
       refY="0"
       refX="0"
       id="Arrow1Mend-5-0-4"
       style="overflow:visible">
      <path
         id="path1146-3-3-8"
         d="M 0,0 5,-5 -12.5,0 5,5 Z"
         style="fill:#ffffff;fill-opacity:1;fill-rule:evenodd;stroke:#ffffff;stroke-width:1.00000003pt;stroke-opacity:1"
         transform="matrix(-0.4,0,0,-0.4,-4,0)" />
    </marker>
    <marker
       orient="auto"
       refY="0"
       refX="0"
       id="Arrow1Mend-5-3-8"
       style="overflow:visible">
      <path
         id="path1146-3-9-5"
         d="M 0,0 5,-5 -12.5,0 5,5 Z"
         style="fill:#ffffff;fill-opacity:1;fill-rule:evenodd;stroke:#ffffff;stroke-width:1.00000003pt;stroke-opacity:1"
         transform="matrix(-0.4,0,0,-0.4,-4,0)" />
    </marker>
    <marker
       style="overflow:visible"
       id="Arrow1Mend"
       refX="0"
       refY="0"
       orient="auto">
      <path
         transform="matrix(-0.4,0,0,-0.4,-4,0)"
         style="fill:#000000;fill-opacity:1;fill-rule:evenodd;stroke:#000000;stroke-width:1.00000003pt;stroke-opacity:1"
         d="M 0,0 5,-5 -12.5,0 5,5 Z"
         id="path1146" />
    </marker>
    <marker
       orient="auto"
       refY="0"
       refX="0"
       id="Arrow1Mend-5"
       style="overflow:visible">
      <path
         id="path1146-3"
         d="M 0,0 5,-5 -12.5,0 5,5 Z"
         style="fill:#ffffff;fill-opacity:1;fill-rule:evenodd;stroke:#ffffff;stroke-width:1.00000003pt;stroke-opacity:1"
         transform="matrix(-0.4,0,0,-0.4,-4,0)" />
    </marker>
    <marker
       style="overflow:visible"
       id="Arrow1Mstart"
       refX="0"
       refY="0"
       orient="auto">
      <path
         transform="matrix(0.4,0,0,0.4,4,0)"
         style="fill:#000000;fill-opacity:1;fill-rule:evenodd;stroke:#000000;stroke-width:1.00000003pt;stroke-opacity:1"
         d="M 0,0 5,-5 -12.5,0 5,5 Z"
         id="path1143" />
    </marker>
    <marker
       orient="auto"
       refY="0"
       refX="0"
       id="Arrow1Mstart-1"
       style="overflow:visible">
      <path
         id="path1143-7"
         d="M 0,0 5,-5 -12.5,0 5,5 Z"
         style="fill:#ffffff;fill-opacity:1;fill-rule:evenodd;stroke:#ffffff;stroke-width:1.00000003pt;stroke-opacity:1"
         transform="matrix(0.4,0,0,0.4,4,0)" />
    </marker>
    <marker
       style="overflow:visible"
       id="Arrow1Lend"
       refX="0"
       refY="0"
       orient="auto">
      <path
         transform="matrix(-0.8,0,0,-0.8,-10,0)"
         style="fill:#000000;fill-opacity:1;fill-rule:evenodd;stroke:#000000;stroke-width:1.00000003pt;stroke-opacity:1"
         d="M 0,0 5,-5 -12.5,0 5,5 Z"
         id="path1140" />
    </marker>
    <marker
       style="overflow:visible"
       id="Arrow1Lstart"
       refX="0"
       refY="0"
       orient="auto">
      <path
         transform="matrix(0.8,0,0,0.8,10,0)"
         style="fill:#000000;fill-opacity:1;fill-rule:evenodd;stroke:#000000;stroke-width:1.00000003pt;stroke-opacity:1"
         d="M 0,0 5,-5 -12.5,0 5,5 Z"
         id="path1137" />
    </marker>
    <marker
       orient="auto"
       refY="0"
       refX="0"
       id="Arrow1Lend-5"
       style="overflow:visible">
      <path
         id="path1140-4"
         d="M 0,0 5,-5 -12.5,0 5,5 Z"
         style="fill:#ffffff;fill-opacity:1;fill-rule:evenodd;stroke:#ffffff;stroke-width:1.00000003pt;stroke-opacity:1"
         transform="matrix(-0.8,0,0,-0.8,-10,0)" />
    </marker>
    <marker
       orient="auto"
       refY="0"
       refX="0"
       id="Arrow1Lstart-93"
       style="overflow:visible">
      <path
         id="path1137-7"
         d="M 0,0 5,-5 -12.5,0 5,5 Z"
         style="fill:#ffffff;fill-opacity:1;fill-rule:evenodd;stroke:#ffffff;stroke-width:1.00000003pt;stroke-opacity:1"
         transform="matrix(0.8,0,0,0.8,10,0)" />
    </marker>
  </defs>
  <metadata
     id="metadata45">
    <rdf:RDF>
      <cc:Work
         rdf:about="">
        <dc:format>image/svg+xml</dc:format>
        <dc:type
           rdf:resource="http://purl.org/dc/dcmitype/StillImage" />
        <dc:title></dc:title>
      </cc:Work>
    </rdf:RDF>
  </metadata>
  <g
     id="g8556"
     transform="translate(49.836509,-375.23204)">
    <g
       id="g5305">
      <text
         id="text898-7-3-6-8-3-3-0-66-7-8-8-0-8-3-4-2-6-22-3-3-4-7-0-2-6-2"
         y="425.61624"
         x="-23.21401"
         style="font-size:6.3499999px;line-height:0.94999999;font-family:voestalpine;-inkscape-font-specification:voestalpine;text-align:center;letter-spacing:0px;word-spacing:0px;text-anchor:middle;fill:#ffffff;fill-opacity:1;stroke-width:0.26458299"
         xml:space="preserve"><tspan
           style="font-size:6.3499999px;text-align:center;text-anchor:middle;fill:#ffffff;fill-opacity:1;stroke-width:0.26458299"
           y="425.61624"
           x="-23.21401"
           id="tspan3280-8-2-3-8">Pokaż nagłówek</tspan></text>
      <g
         style="fill:#ffffff;fill-opacity:1;stroke:#ffffff;stroke-opacity:1"
         id="g3425-7-6"
         transform="matrix(0.43424404,0,0,-0.43424404,-44.517248,415.49935)">
        <rect
           id="rect3393-7-1"
           height="2"
           width="13.89"
           y="68.667"
           x="17.409"
           style="fill:#ffffff;fill-opacity:1;stroke:#ffffff;stroke-opacity:1" />
        <path
           id="path3395-1-7"
           d="M 85.235,77.833 H 14.106 c -2.998,0 -5.436,-2.438 -5.436,-5.436 V 23.27 c 0,-2.998 2.438,-5.436 5.436,-5.436 h 71.129 c 2.998,0 5.436,2.438 5.436,5.436 v 49.128 c -0.001,2.998 -2.438,5.435 -5.436,5.435 z m -71.129,-58 c -1.895,0 -3.436,1.541 -3.436,3.437 v 49.128 c 0,1.895 1.541,3.436 3.436,3.436 h 71.129 c 1.895,0 3.436,-1.541 3.436,-3.436 V 23.27 c 0,-1.896 -1.541,-3.437 -3.436,-3.437 z"
           style="fill:#ffffff;fill-opacity:1;stroke:#ffffff;stroke-opacity:1" />
        <rect
           id="rect3397-6-6"
           height="2"
           width="13.89"
           y="68.667"
           x="42.648998"
           style="fill:#ffffff;fill-opacity:1;stroke:#ffffff;stroke-opacity:1" />
        <rect
           id="rect3399-8-5"
           height="2"
           width="13.89"
           y="68.667"
           x="67.704002"
           style="fill:#ffffff;fill-opacity:1;stroke:#ffffff;stroke-opacity:1" />
        <rect
           id="rect3401-4-7"
           height="2"
           width="13.89"
           y="62.667"
           x="17.500999"
           style="fill:#ffffff;fill-opacity:1;stroke:#ffffff;stroke-opacity:1" />
        <rect
           id="rect3403-9-4"
           height="2"
           width="13.89"
           y="62.667"
           x="42.742001"
           style="fill:#ffffff;fill-opacity:1;stroke:#ffffff;stroke-opacity:1" />
        <rect
           id="rect3405-2-5"
           height="2"
           width="13.89"
           y="62.667"
           x="67.795998"
           style="fill:#ffffff;fill-opacity:1;stroke:#ffffff;stroke-opacity:1" />
        <rect
           id="rect3407-0-9"
           height="2"
           width="64.139"
           y="56.667"
           x="17.500999"
           style="fill:#ffffff;fill-opacity:1;stroke:#ffffff;stroke-opacity:1" />
      </g>
      <g
         id="g2700"
         transform="translate(-1071.8462,462.14482)">
        <rect
           y="-86.664398"
           x="1021.9817"
           height="52.63237"
           width="52.632374"
           id="rect833-2-8-6-2-6-4-8-1-7-4-6-9-4"
           style="fill:#b9d4ff;fill-opacity:1;stroke:#000000;stroke-width:0.28429499;stroke-linecap:round;stroke-miterlimit:4;stroke-dasharray:none;stroke-opacity:1;paint-order:fill markers stroke" />
        <text
           id="text837-2-5-3-5-4-2-1-6-9-68-0-7-6"
           y="-36.510471"
           x="1048.124"
           style="font-size:6.3499999px;line-height:1.04999995;font-family:voestalpine;-inkscape-font-specification:voestalpine;text-align:end;letter-spacing:0px;word-spacing:0px;text-anchor:end;stroke-width:0.26458299"
           xml:space="preserve"><tspan
             id="tspan3602-7"
             style="font-size:6.3499999px;text-align:center;text-anchor:middle;stroke-width:0.26458299"
             y="-36.510471"
             x="1048.124">Ustaw czcionkę</tspan></text>
        <g
           style="fill:#000000"
           id="g3757"
           transform="matrix(1.073212,0,0,1.073212,1031.1265,-82.852879)">
          <g
             id="g3730">
            <g
               id="g3700">
              <path
                 id="path3698"
                 d="m 22,12.333008 c -0.552734,0 -1,-0.447266 -1,-1 V 11 H 11 v 0.333008 c 0,0.552734 -0.447266,1 -1,1 -0.5527344,0 -1,-0.447266 -1,-1 V 10 C 9,9.4472656 9.4472656,9 10,9 h 12 c 0.552734,0 1,0.4472656 1,1 v 1.333008 c 0,0.552734 -0.447266,1 -1,1 z" />
            </g>
            <g
               id="g3704">
              <path
                 id="path3702"
                 d="m 16,23 c -0.552734,0 -1,-0.447266 -1,-1 V 10 c 0,-0.5527344 0.447266,-1 1,-1 0.552734,0 1,0.4472656 1,1 v 12 c 0,0.552734 -0.447266,1 -1,1 z" />
            </g>
            <g
               id="g3708">
              <path
                 id="path3706"
                 d="m 18.666992,23 h -5.333984 c -0.552735,0 -1,-0.447266 -1,-1 0,-0.552734 0.447265,-1 1,-1 h 5.333984 c 0.552735,0 1,0.447266 1,1 0,0.552734 -0.447265,1 -1,1 z" />
            </g>
            <g
               id="g3712">
              <path
                 id="path3710"
                 d="M 4,8 C 1.7939453,8 0,6.2060547 0,4 0,1.7939453 1.7939453,0 4,0 6.2060547,0 8,1.7939453 8,4 8,6.2060547 6.2060547,8 4,8 Z M 4,2 C 2.8974609,2 2,2.8974609 2,4 2,5.1025391 2.8974609,6 4,6 5.1025391,6 6,5.1025391 6,4 6,2.8974609 5.1025391,2 4,2 Z" />
            </g>
            <g
               id="g3716">
              <path
                 id="path3714"
                 d="m 28,8 c -2.206055,0 -4,-1.7939453 -4,-4 0,-2.2060547 1.793945,-4 4,-4 2.206055,0 4,1.7939453 4,4 0,2.2060547 -1.793945,4 -4,4 z m 0,-6 c -1.102539,0 -2,0.8974609 -2,2 0,1.1025391 0.897461,2 2,2 1.102539,0 2,-0.8974609 2,-2 0,-1.1025391 -0.897461,-2 -2,-2 z" />
            </g>
            <g
               id="g3720">
              <path
                 id="path3718"
                 d="m 4,32 c -2.2060547,0 -4,-1.793945 -4,-4 0,-2.206055 1.7939453,-4 4,-4 2.2060547,0 4,1.793945 4,4 0,2.206055 -1.7939453,4 -4,4 z m 0,-6 c -1.1025391,0 -2,0.897461 -2,2 0,1.102539 0.8974609,2 2,2 1.1025391,0 2,-0.897461 2,-2 0,-1.102539 -0.8974609,-2 -2,-2 z" />
            </g>
            <g
               id="g3724">
              <path
                 id="path3722"
                 d="m 28,32 c -2.206055,0 -4,-1.793945 -4,-4 0,-2.206055 1.793945,-4 4,-4 2.206055,0 4,1.793945 4,4 0,2.206055 -1.793945,4 -4,4 z m 0,-6 c -1.102539,0 -2,0.897461 -2,2 0,1.102539 0.897461,2 2,2 1.102539,0 2,-0.897461 2,-2 0,-1.102539 -0.897461,-2 -2,-2 z" />
            </g>
            <g
               id="g3728">
              <path
                 id="path3726"
                 d="M 25.038086,29.376953 H 6.9619141 c -0.2871094,0 -0.5595703,-0.123047 -0.75,-0.337891 -0.1894531,-0.21582 -0.2783203,-0.501953 -0.2421875,-0.786132 0,-0.0039 0.012695,-0.0957 0.013672,-0.100586 C 5.9902344,28.102539 6,28.051758 6,28 6,26.897461 5.1025391,26 4,26 c -0.051758,0 -0.1025391,0.0098 -0.1523438,0.0166 -0.00488,9.76e-4 -0.09668,0.01367 -0.1005859,0.01367 -0.2822266,0.03516 -0.5712891,-0.05273 -0.7861328,-0.242187 -0.2148438,-0.19043 -0.3378906,-0.462891 -0.3378906,-0.75 V 6.9619141 c 0,-0.2871094 0.1230469,-0.5595703 0.3378906,-0.75 C 3.1757813,6.0224609 3.4648438,5.9375 3.7470703,5.9697266 c 0.00391,0 0.095703,0.012695 0.1005859,0.013672 C 3.8974609,5.9902344 3.9482422,6 4,6 5.1025391,6 6,5.1025391 6,4 6,3.9482422 5.9902344,3.8974609 5.9833984,3.8476562 5.9824219,3.8427734 5.9697266,3.7509766 5.9697266,3.7470703 5.9335938,3.4628906 6.0224609,3.1767578 6.2119141,2.9609375 6.4023438,2.7460937 6.6748047,2.6230469 6.9619141,2.6230469 H 25.038086 c 0.287109,0 0.55957,0.1230469 0.75,0.3378906 0.189453,0.2158203 0.27832,0.5019531 0.242187,0.7861328 0,0.00391 -0.0127,0.095703 -0.01367,0.1005859 C 26.009766,3.8974609 26,3.9482422 26,4 c 0,1.1025391 0.897461,2 2,2 0.05176,0 0.102539,-0.00977 0.152344,-0.016602 0.0049,-9.766e-4 0.09668,-0.013672 0.100586,-0.013672 0.282226,-0.032227 0.572265,0.052734 0.786132,0.2421875 0.214844,0.1904297 0.337891,0.4628906 0.337891,0.75 V 25.038085 c 0,0.28711 -0.123047,0.559571 -0.337891,0.75 -0.213867,0.189454 -0.503906,0.277344 -0.786132,0.242188 -0.0039,0 -0.0957,-0.0127 -0.100586,-0.01367 C 28.102539,26.009766 28.051758,26 28,26 c -1.102539,0 -2,0.897461 -2,2 0,0.05176 0.0098,0.102539 0.0166,0.152344 9.76e-4,0.0049 0.01367,0.09668 0.01367,0.100586 0.03613,0.284179 -0.05273,0.570312 -0.242187,0.786132 -0.19043,0.214844 -0.462891,0.337891 -0.75,0.337891 z m -17.0869141,-2 H 24.048828 c 0.267578,-1.708008 1.620117,-3.060547 3.328125,-3.328125 V 7.9511719 C 25.668945,7.6835938 24.316406,6.3310547 24.048828,4.6230469 H 7.9511719 C 7.6835938,6.3310547 6.3310547,7.6835938 4.6230469,7.9511719 V 24.048828 c 1.7080078,0.267578 3.0605469,1.620117 3.328125,3.328125 z" />
            </g>
          </g>
        </g>
      </g>
    </g>
  </g>
</svg>

<svg id="SVGRoot" width="208" height="208" version="1.1" viewBox="0 0 208 208" xmlns="http://www.w3.org/2000/svg">
 <g transform="translate(0,7)">
  <g transform="matrix(3.7795 0 0 3.7795 10.171 -6.7758)">
   <g transform="translate(-1.0884 -121.69)">
    <g transform="translate(1.6608 -59.209)">
     <g transform="translate(-.6443 -59.335)">
      <g transform="translate(-1396.8 269.89)">
       <g transform="translate(-57.972 -.024822)">
        <g transform="translate(1658.1 73.867)">
         <g transform="translate(-203.03 -103.33)">
          <flowRoot transform="matrix(.26458 0 0 .26458 -2.875 1.091)" fill="#000000" font-family="sans-serif" font-size="40px" letter-spacing="0px" word-spacing="0px" style="line-height:1.25" xml:space="preserve"><flowRegion><rect x="-85.582" y="-60.812" width="342.33" height="293.65"/></flowRegion><flowPara/></flowRoot>
          <g transform="translate(-1039.4 318.88)">
           <flowRoot transform="matrix(.26458 0 0 .26458 1036.5 -317.79)" fill="#000000" font-family="sans-serif" font-size="40px" letter-spacing="0px" word-spacing="0px" style="line-height:1.25" xml:space="preserve"><flowRegion><rect x="-105.21" y="-13.703" width="562.17" height="513.49"/></flowRegion><flowPara/></flowRoot>
           <g transform="translate(-66.134 .039287)">
            <g transform="translate(-66.173 .043409)">
             <flowRoot transform="matrix(.26458 0 0 .26458 1168.8 -317.87)" fill="#000000" font-family="sans-serif" font-size="40px" letter-spacing="0px" word-spacing="0px" style="line-height:1.25" xml:space="preserve"><flowRegion><rect x="-114.63" y="-91.434" width="675.23" height="522.91"/></flowRegion><flowPara/></flowRoot>
             <g transform="translate(-66.2 -.040316)">
              <g transform="translate(-65.918 -.60254)">
               <g transform="translate(-66.6 .14883)">
                <flowRoot fill="black" font-family="sans-serif" font-size="40px" letter-spacing="0px" word-spacing="0px" style="line-height:1.25" xml:space="preserve"><flowRegion><rect x="-24.34" y="-19.695" width="252.04" height="245.75"/></flowRegion><flowPara/></flowRoot>
                <g transform="translate(-68.678 -.48293)">
                 <flowRoot fill="black" font-family="sans-serif" font-size="40px" letter-spacing="0px" word-spacing="0px" style="line-height:1.25" xml:space="preserve"><flowRegion><rect x="-65.168" y="-26.762" width="382.37" height="335.26"/></flowRegion><flowPara/></flowRoot>
                 <g transform="translate(-63.347 .4912)">
                  <g transform="translate(529.82 -.18087)">
                   <g transform="translate(794.67 .06923)">
                    <g transform="translate(-198.36 .17569)">
                     <g transform="translate(-530.68 .043413)">
                      <g transform="translate(912.04 -.041317)">
                       <g transform="translate(132.58 -.39794)">
                        <g transform="translate(-580.62 .35866)">
                         <g transform="translate(-264.6 -.1571)">
                          <g transform="translate(463.55 .097138)">
                           <g transform="translate(-397.36 .059959)">
                            <g transform="translate(66.026 -.30592)">
                             <g transform="translate(-264.69 -.093008)">
                              <g transform="translate(734.89 179.33)">
                               <g transform="translate(-205.07 -178.97)">
                                <g transform="translate(-1081.1 -686.85)">
                                 <flowRoot fill="black" font-family="sans-serif" font-size="40px" letter-spacing="0px" word-spacing="0px" style="line-height:1.25" xml:space="preserve"><flowRegion><rect x="21" y="-71" width="223" height="308"/></flowRegion><flowPara/></flowRoot>
                                 <g transform="translate(-112.28 .55746)">
                                  <g transform="translate(-396.77 -.26462)">
                                   <g transform="translate(167.68 .26462)">
                                    <g transform="translate(457.35 -.55746)">
                                     <g transform="translate(452.66 .26458)">
                                      <g transform="translate(-200.71 456.02)">
                                       <rect x="1022" y="-86.664" width="52.632" height="52.632" fill="#b9d4ff" stroke="#000" stroke-linecap="round" stroke-width=".28429" style="paint-order:fill markers stroke"/>
                                       <text x="1048.124" y="-38.335087" font-family="sans-serif" font-size="6.35px" letter-spacing="0px" stroke-width=".26458" text-align="end" text-anchor="end" word-spacing="0px" style="line-height:1.04999995" xml:space="preserve"><tspan x="1048.124" y="-38.335087" font-family="sans-serif" font-size="4.9389px" stroke-width=".26458" text-align="center" text-anchor="middle">Ustaw czcionkę</tspan></text>
                                       <g transform="matrix(1.0732 0 0 1.0732 1031.1 -83.382)">
                                        <path d="m22 12.333c-.55273 0-1-.44727-1-1v-.33301h-10v.33301c0 .55273-.44727 1-1 1-.55273 0-1-.44727-1-1v-1.333c0-.55273.44727-1 1-1h12c.55273 0 1 .44727 1 1v1.333c0 .55273-.44727 1-1 1z"/>
                                        <path d="m16 23c-.55273 0-1-.44727-1-1v-12c0-.55273.44727-1 1-1s1 .44727 1 1v12c0 .55273-.44727 1-1 1z"/>
                                        <path d="m18.667 23h-5.334c-.55274 0-1-.44727-1-1s.44726-1 1-1h5.334c.55274 0 1 .44727 1 1s-.44726 1-1 1z"/>
                                        <path d="m4 8c-2.2061 0-4-1.7939-4-4s1.7939-4 4-4 4 1.7939 4 4-1.7939 4-4 4zm0-6c-1.1025 0-2 .89746-2 2s.89746 2 2 2 2-.89746 2-2-.89746-2-2-2z"/>
                                        <path d="m28 8c-2.2061 0-4-1.7939-4-4s1.7939-4 4-4 4 1.7939 4 4-1.7939 4-4 4zm0-6c-1.1025 0-2 .89746-2 2s.89746 2 2 2 2-.89746 2-2-.89746-2-2-2z"/>
                                        <path d="m4 32c-2.2061 0-4-1.7939-4-4s1.7939-4 4-4 4 1.7939 4 4-1.7939 4-4 4zm0-6c-1.1025 0-2 .89746-2 2s.89746 2 2 2 2-.89746 2-2-.89746-2-2-2z"/>
                                        <path d="m28 32c-2.2061 0-4-1.7939-4-4s1.7939-4 4-4 4 1.7939 4 4-1.7939 4-4 4zm0-6c-1.1025 0-2 .89746-2 2s.89746 2 2 2 2-.89746 2-2-.89746-2-2-2z"/>
                                        <path d="m25.038 29.377h-18.076c-.28711 0-.55957-.12305-.75-.33789-.18945-.21582-.27832-.50195-.24219-.78613 0-.0039.012695-.0957.013672-.10059.0068358-.049805.016601-.10059.016601-.15234 0-1.1025-.89746-2-2-2-.051758 0-.10254.0098-.15234.0166-.00488.000976-.09668.01367-.10059.01367-.28223.03516-.57129-.05273-.78613-.24219-.21484-.19043-.33789-.46289-.33789-.75v-18.076c0-.28711.12305-.55957.33789-.75.21484-.18945.50391-.27441.78613-.24219.00391 0 .095703.012695.10059.013672.049805.0068358.10059.016601.15234.016601 1.1025 0 2-.89746 2-2 0-.051758-.0097656-.10254-.016602-.15234-.0009765-.0048828-.013672-.09668-.013672-.10059-.036133-.28418.052734-.57031.24219-.78613.19043-.21484.46289-.33789.75-.33789h18.076c.28711 0 .55957.12305.75.33789.18945.21582.27832.50195.24219.78613 0 .00391-.0127.095703-.01367.10059-.006837.049805-.016603.10059-.016603.15234 0 1.1025.89746 2 2 2 .05176 0 .10254-.00977.15234-.016602.0049-.0009766.09668-.013672.10059-.013672.28223-.032227.57226.052734.78613.24219.21484.19043.33789.46289.33789.75v18.076c0 .28711-.12305.55957-.33789.75-.21387.18945-.50391.27734-.78613.24219-.0039 0-.0957-.0127-.10059-.01367-.049805-.006837-.10059-.016603-.15234-.016603-1.1025 0-2 .89746-2 2 0 .05176.0098.10254.0166.15234.000976.0049.01367.09668.01367.10059.03613.28418-.05273.57031-.24219.78613-.19043.21484-.46289.33789-.75.33789zm-17.087-2h16.098c.26758-1.708 1.6201-3.0605 3.3281-3.3281v-16.098c-1.708-.26758-3.0605-1.6201-3.3281-3.3281h-16.098c-.26758 1.708-1.6201 3.0605-3.3281 3.3281v16.098c1.708.26758 3.0605 1.6201 3.3281 3.3281z"/>
                                       </g>
                                      </g>
                                     </g>
                                    </g>
                                   </g>
                                  </g>
                                 </g>
                                </g>
                               </g>
                              </g>
                             </g>
                            </g>
                           </g>
                          </g>
                         </g>
                        </g>
                       </g>
                      </g>
                     </g>
                    </g>
                   </g>
                  </g>
                 </g>
                </g>
               </g>
              </g>
             </g>
            </g>
           </g>
          </g>
         </g>
        </g>
       </g>
      </g>
     </g>
    </g>
   </g>
  </g>
 </g>
</svg>
